24x24/actions/gnumeric-format-percentage.svg

<svg xmlns="http://www.w3.org/2000/svg" viewBox="0 0 24 24">
  <defs id="defs3051">
    <style type="text/css" id="current-color-scheme">
      .ColorScheme-Text {
        color:#5d656b;
      }
      </style>
  </defs>
 <path style="fill:currentColor;fill-opacity:1;stroke:none" 
     d="M 17.480469 3.6113281 L 5.4804688 19.611328 L 6.0507812 20.039062 L 6.40625 20.3125 L 6.4101562 20.308594 L 6.5195312 20.390625 L 18.519531 4.390625 L 18.050781 4.0390625 L 17.59375 3.6875 L 17.589844 3.6933594 L 17.480469 3.6113281 z M 7.5 5 C 5.5670034 5 4 6.5670034 4 8.5 C 4 10.432997 5.5670034 12 7.5 12 C 9.4329966 12 11 10.432997 11 8.5 C 11 6.5670034 9.4329966 5 7.5 5 z M 7.5 6 C 8.8807119 6 10 7.1192881 10 8.5 C 10 9.8807119 8.8807119 11 7.5 11 C 6.1192881 11 5 9.8807119 5 8.5 C 5 7.1192881 6.1192881 6 7.5 6 z M 16.5 13 C 14.567003 13 13 14.567 13 16.5 C 13 18.433 14.567003 20 16.5 20 C 18.432997 20 20 18.433 20 16.5 C 20 14.567 18.432997 13 16.5 13 z M 16.5 14 C 17.880712 14 19 15.119288 19 16.5 C 19 17.880712 17.880712 19 16.5 19 C 15.119288 19 14 17.880712 14 16.5 C 14 15.119288 15.119288 14 16.5 14 z "
     class="ColorScheme-Text"
     />
</svg>

<svg xmlns="http://www.w3.org/2000/svg" viewBox="0 0 24 24"><path style="fill:currentColor;fill-opacity:1;stroke:none;color:#5d656b" d="m17.48 3.611-12 16 .57.428.356.273.004-.003.11.082 12-16-.47-.352-.456-.351-.004.005-.11-.082zM7.5 5a3.5 3.5 0 1 0 0 7 3.5 3.5 0 0 0 0-7zm0 1a2.5 2.5 0 1 1 0 5 2.5 2.5 0 0 1 0-5zm9 7a3.5 3.5 0 1 0 0 7 3.5 3.5 0 0 0 0-7zm0 1a2.5 2.5 0 1 1 0 5 2.5 2.5 0 0 1 0-5z"/></svg>
